X: 8966
T: Cutting A Slide
R: reel
M: 4/4
K: Dmajor
FA, A,/A,/A, AA,FA,|EDCE DB,A,D|FA, A,/A,/A, FA,AF|DBBA B2 Bc|
dcBA ~F2AF|EDFD EDB,A,|FA, A,/A,/A, AA,FA,|EDCE D3 E:|
|:FAce dB ~B2|Aceg fd~d2|BGBd A2 FD|E^GBd cA~A2|
FAce dB ~B2|Aceg fd~d2|BGBd A2 FD|EDCE D3 E:|

